X:12
T: EIA WIWI WER SCHLAEFT HEUT NACHT BEI MIR
N: K0040
O: Europa, Mitteleuropa, Deutschland
R: Kinder -, Wiegen - Lied
M: 2/4
L: 1/16
K: F
 | c4A2G2 | F4z2
C2 | c3BA2G2 | F4z4 |
F2F2G2F2 | B2A2G2
C2 | F2F2G2F2 | B2A2G4 |
A4G2G2 | F4z4

@@@ Tune index: 7349
